X: 6
T: Tourdion (with brands)
M: 3/4
L: 1/8
B: The Orography of Thoinot Arbeau (Lengres, France, 1589)
F: http: //graner.net/nicolas/arbeau/orcheso.abc
N: for more information: http://graner.net/nicolas/arbeau/
Z: Nicolas Graner <arbeau@graner.name> Sep. 2001
K: F
B2 A2 G2 c2 z2 A2 | G2 F2 E2 F2 z2 D2 | B2 A2 G2 c2 z2 A2 | G2 G2 F2 G2 z2 G2 ::
G2 G2 G2 F2 z2 c2 | B2 B2 A2 B2 z2 B2 | B2 B2 B2 A2 z2 A2 | G2 G2 F2 G2 z2 G2 ||

